X: 998
T: Her Bir Bakışında Neş`e Buldum
C: Tanburî Ali Efendi
O: Turkey
F: http://compmusic.upf.edu/node/140
N: suzidil--sarki--aksak--her_bir--tanburi_ali_efendi
N: makam= suzidil
N: form= sarki
N: usul= aksak = 9/8
M: 9/8
L: 1/16
K: C ^1/4f ^g ^d 
Q: 1/4=204
%%MIDI tuningsystem comma53
e3g =f2e2 d2B2 .c2d2 .e2 | cB .A2BA G2A4e2 d2e2  | \
w:  ARANAĞME  |   | 
=f8 e4 b2a2 b2 | 
w:   | 
g3=fe2 g2fe .d2e4z2  | A4 e4 =d2e2 c2d2 e2 | \
w:   |   | 
=f3a=g2 f2e2 =d2c2 B2A2  | 
w:   | 
B8 z4 B2c2 ^3/4c2 | =d8z4^3/4c2 d2=f2  | \
w:   |   | 
e3=d c3B A4 B2c2 d2 | B8z4B2 A2B2  | 
w:   |   | 
c8 z4 c2B2 c2 | =d4c2 B2A4e6  | =d2c2 B2A2 G8 z2 | \
w:   |   |   | 
E3G=F2 E2D2 E2F2 G2A2  | 
w:   | 
B2c2 B2A2 G2=F2 G2F2 E2 | E4G2 F2E2 D2E6  | \
w:   |   | 
e3g =f2e2 d2B2 .c2d2 .e2 | 
w:  ARANAĞME  | 
cB .A2BA G2A4e2 d2e2  | =f8 e4 b2a2 b2 | \
w:   |   | 
g3=fe2 g2fe .d2e4z2  | 
w:   | 
A4 e4 =d2e2 c2d2 e2 | =f3a=g2 f2e2 =d2c2 B2A2  | \
w:   |   | 
B8 z4 B2c2 ^3/4c2 | 
w:   | 
=d8z4^3/4c2 d2=f2  | e3=d c3B A4 B2c2 d2 | \
w:   |   | 
B8z4B2 A2B2  | c8 z4 c2B2 c2 | 
w:   |   | 
=d4c2 B2A4e6  | =d2c2 B2A2 G8 z2 | E3G=F2 E2D2 E2F2 G2A2  | \
w:   |   |   | 
B2c2 B2A2 G2=F2 G2F2 E2 | 
w:   | 
E4G2 F2E2 D2E6  | e4 g2=f2 f2e2 e2d2 c2 | \
w:   |  *  Her  *  bir  *  ba *  kı  | 
e8=f2 {g}fef4e2  | z2a4a2 g2=f2 e6 | 
w:  şın *  *  *  *  *  da   |  neş e  bul  | 
a3g=f2 a2g2 f2e3dc2  | z4 g2=f2 f2e2 e2d2 c2 | \
w:  dum    |  Her  *  bir  *  ba *  kı  | 
e8=f2 {g}fef4e2  | 
w:  şın *  *  *  *  *  da   | 
e2a4a2 g2=f2 g2f2 fe | {=f}e8gf ede6  | \
w:  *  neş e  bul  |  *  dum   SAZ  | 
z4 A4 e4 =d4 e2 | c2 =d2e2 =f2a2 =g2f2 e2d2  | 
w:  Ben  göz le ri  |  nin   | 
=d2d2 c2B2 c2B2 A2G2 A2 | B8=d2 cBB4z2  | \
w:  e sî *  *  ri  *  ol  |  dum   SAZ  | 
z4 G2A2 B4 {=d}c3B A2 | 
w:  Ben  *  göz *  le *  ri  | 
{B}G2 =F2E2 F2G2 A2B2 c2=d2  | B2{=d}c2 B2A2 G2=F2 G2F2 FE | \
w:  *  nin   |  e *  sî *  *  ri  *  ol  | 
E6 a2=g2 b2a4z2  | 
w:  dum   SAZ  | 
z4 =g4 a4 a2a4 | a3=ga2 b2g2 a2{b}g2 ^2/4f2e2  | \
w:  Tîr_ i  ni ge  |  hin *  *  *  *  *  *  *  *  le   | 
z2{=g}a4a2 a2g2 ^2/4f2e2 f2 | 
w:  *  ah  vu rul  | 
=g4a2 {b}g2^2/4f3e=d6  | z4 =d4 e4 e2e2 d2 | \
w:  dum    |  Tîr_ i  ni ge  | 
c'3ba2 b2=g2 a2{b}g2 ^2/4f2e2  | 
w:  hin *  *  *  *  *  *  *  *  le   | 
z2=f2 e2a2 g2f2 g2f2 fe | e8g=f ede6  | \
w:  ah  *  vu rul  |  dum   SAZ  | 
z4 A4 e4 =d4 e2 | 
w:  Ben  göz le ri  | 
c2 =d2e2 =f2a2 =g2f2 e2d2  | =d2d2 c2B2 c2B2 A2G2 A2 | \
w:  nin   |  e sî *  *  ri  *  ol  | 
B8=d2 cBB4z2  | 
w:  dum   SAZ  | 
z4 G2A2 B4 {=d}c3B A2 | {B}G2 =F2E2 F2G2 A2B2 c2=d2  | \
w:  Ben  *  göz *  le *  ri  |  *  nin   | 
B2{=d}c2 B2A2 G2=F2 G2F2 FE | 
w:  e *  sî *  *  ri  *  ol  | 
E6 |
w:  dum    | 


